X:1
T: Judy Brallaghan
C:
R:Reel
Q: 232
K:A
M:4/4
L:1/8
|:c2|d2 fd c2 ec|B2 Bc BA FG|AB AG EF Ac|BA Bc BA FA|
d2 fd c2 ec|B2 Bc BA FG|AB AG EF Ac|BA Bc A2:|
|:E2|AB cd e2 fg|a2 af ec Ac|d2 fd c2 ec|B2 Bc BA F2|
ag af ec Ac|BA Bc BA FG|AB AF EF Ac|BA Bc A2:|
